assets/caps_lock.svg

<svg fill="none" height="26" viewBox="0 0 22 26" width="22" xmlns="http://www.w3.org/2000/svg"><path d="m10.5354 1.04393-.0003-.00028-.0072.00831-9.49672 10.99624c-.12262.1253-.263078.3906-.123923.6689.128923.2578.385663.3829.634163.3829h4.35v11.35c0 .1841.06202.3491.18144.4686.11941.1194.28447.1814.46856.1814h8.99998c.1841 0 .3492-.062.4686-.1814.1194-.1195.1814-.2845.1814-.4686v-11.35h4.35c.2426 0 .493-.1192.6248-.3647.046-.0571.0615-.1254.0655-.1809.0046-.0643-.0048-.1308-.0198-.1908-.0282-.1128-.0861-.2387-.1601-.3152l-9.4969-10.99644.0003-.00027-.0077-.00776c-.1345-.134492-.3263-.19393-.5061-.19393s-.3715.059438-.506.19393zm4.356 11.40607v11.35h-7.69998v-11.35c0-.1841-.06202-.3491-.18143-.4686-.11942-.1194-.28448-.1814-.46857-.1814h-3.57168l8.07166-9.32086 8.0717 9.32086h-3.5717c-.1841 0-.3491.062-.4685.1814-.1195.1195-.1815.2845-.1815.4686z" fill="#313131" stroke="#313131" stroke-width=".3"/></svg>

<svg width="22" height="26" viewBox="0 0 22 26" fill="none" xmlns="http://www.w3.org/2000/svg">
<path d="M10.5354 1.04393L10.5351 1.04365L10.5279 1.05196L1.03118 12.0482C0.90856 12.1735 0.768102 12.4388 0.907257 12.7171C1.03618 12.9749 1.29292 13.1 1.54142 13.1H5.89142V24.45C5.89142 24.6341 5.95344 24.7991 6.07286 24.9186C6.19227 25.038 6.35733 25.1 6.54142 25.1H15.5414C15.7255 25.1 15.8906 25.038 16.01 24.9186C16.1294 24.7991 16.1914 24.6341 16.1914 24.45V13.1H20.5414C20.784 13.1 21.0344 12.9808 21.1662 12.7353C21.2122 12.6782 21.2277 12.6099 21.2317 12.5544C21.2363 12.4901 21.2269 12.4236 21.2119 12.3636C21.1837 12.2508 21.1258 12.1249 21.0518 12.0484L11.5549 1.05196L11.5552 1.05169L11.5475 1.04393C11.413 0.909438 11.2212 0.85 11.0414 0.85C10.8616 0.85 10.6699 0.909438 10.5354 1.04393ZM14.8914 12.45V23.8H7.19142V12.45C7.19142 12.2659 7.1294 12.1009 7.00999 11.9814C6.89057 11.862 6.72551 11.8 6.54142 11.8H2.96974L11.0414 2.47914L19.1131 11.8H15.5414C15.3573 11.8 15.1923 11.862 15.0729 11.9814C14.9534 12.1009 14.8914 12.2659 14.8914 12.45Z" fill="#313131" stroke="#313131" stroke-width="0.3"/>
</svg>
